svgs/solid/wifi-fair.svg

<svg xmlns="http://www.w3.org/2000/svg" viewBox="0 0 640 512"><!--! Font Awesome Pro 6.1.1 by @fontawesome - https://fontawesome.com License - https://fontawesome.com/license (Commercial License) Copyright 2022 Fonticons, Inc. --><path d="M319.1 352c-35.35 0-64 28.66-64 63.1s28.66 64 64 64c35.34 0 64-28.66 64-64S355.3 352 319.1 352zM320 192C249.8 192 182.1 217.6 129.5 264C116.3 275.7 115 295.9 126.7 309.2C138.5 322.4 158.7 323.7 171.9 312C212.8 275.9 265.4 256 320 256s107.3 19.88 148.1 56C474.2 317.4 481.8 320 489.3 320c8.844 0 17.66-3.656 24-10.81C525 295.9 523.8 275.7 510.5 264C457.9 217.6 390.3 192 320 192z"/></svg>

<svg xmlns="http://www.w3.org/2000/svg" viewBox="0 0 640 512"><!--! Font Awesome Pro 6.4.2 by @fontawesome - https://fontawesome.com License - https://fontawesome.com/license (Commercial License) Copyright 2023 Fonticons, Inc. --><path d="M320 352a64 64 0 1 0 0 128 64 64 0 1 0 0-128zm0-160c-70.2 0-137.9 25.6-190.5 72c-13.2 11.7-14.5 31.9-2.8 45.2c11.8 13.3 32 14.5 45.2 2.8c40.9-36.1 93.5-56 148.1-56s107.3 19.9 148.1 56c6.1 5.4 13.7 8 21.2 8c8.8 0 17.7-3.7 24-10.8c11.7-13.2 10.4-33.5-2.8-45.2c-52.6-46.4-120.2-72-190.5-72zM171.8 312c39.5-34.9 91.3-56 148.2-56s108.6 21.1 148.2 56c13.3 11.7 33.5 10.4 45.2-2.8s10.4-33.5-2.8-45.2C459.8 219.2 393 192 320 192s-139.8 27.2-190.5 72c-13.3 11.7-14.5 31.9-2.8 45.2s31.9 14.5 45.2 2.8zM320 480a64 64 0 1 0 0-128 64 64 0 1 0 0 128z"/></svg>
